svg/military_worker_outline.svg

<?xml version="1.0" encoding="UTF-8" standalone="no"?>
<!-- Created with Inkscape (http://www.inkscape.org/) -->
<svg id="svg8" xmlns:rdf="http://www.w3.org/1999/02/22-rdf-syntax-ns#" xmlns="http://www.w3.org/2000/svg" xmlns:osb="http://www.openswatchbook.org/uri/2009/osb" height="48" width="48" version="1.1" xmlns:cc="http://creativecommons.org/ns#" viewBox="0 0 12.7 12.7" xmlns:dc="http://purl.org/dc/elements/1.1/">
 <title id="title4753">UIO-icon</title>
 <metadata id="metadata5">
  <rdf:RDF>
   <cc:Work rdf:about="">
    <dc:format>image/svg+xml</dc:format>
    <dc:type rdf:resource="http://purl.org/dc/dcmitype/StillImage"/>
    <dc:title>UIO-icon</dc:title>
    <dc:creator>
     <cc:Agent>
      <dc:title>Joaquín Urbano</dc:title>
     </cc:Agent>
    </dc:creator>
    <dc:rights>
     <cc:Agent>
      <dc:title>GPL</dc:title>
     </cc:Agent>
    </dc:rights>
   </cc:Work>
  </rdf:RDF>
 </metadata>
 <g id="layer1" fill="#333" transform="translate(0,-284.3)">
  <path id="rect5919" d="m23.502 4.9316c-3.1373 0.003707-6.0165 1.7381-7.4863 4.5098-0.23895 0.50715-0.45108 1.0411-0.64844 1.5898-0.22063 0.74607-0.33762 1.5189-0.34766 2.2969h16.962c-0.01-0.778-0.128-1.551-0.349-2.297-0.192-0.53-0.376-1.0596-0.649-1.5896-1.469-2.7704-4.346-4.5046-7.482-4.5098zm-13.916 0.002c-0.1067 0.0055-0.2073 0.0329-0.3066 0.0644v0.91797c-0.083149 0.011339-0.1659 0.026458-0.25 0.046875v0.56641h0.25v0.046875h-0.76953c-0.3608 0.082704-0.4878 0.31924-0.48047 0.5625v0.0039062c0.013036 0.31365 0.24652 0.63626 0.48047 0.65625h0.76953v5.1094c-0.0961 0.015-0.1913 0.03-0.2871 0.045l-0.0019531 0.34375c-0.031861-0.022677-0.058163-0.011339-0.083984 0l0.002 9.932-0.0957 7.449c-0.1862 0.068-0.3611 0.14-0.5527 0.207-2.5451 0.749-2.545 2.867-2.545 4.019v6.6621h35.572v-6.6621c0-1.1525 0.00016284-3.2682-2.5449-4.0195-1.2109-0.42077-2.3081-0.88043-3.373-1.3418l-2.652-1.15c-0.795-0.341-1.588-0.669-2.405-0.959-1.5652 1.4702-4.7177 2.8115-6.8027 2.8438-2.5629-0.002872-5.0208-1.0188-6.8379-2.8262l-0.10938 0.029297c-0.87529 0.31559-1.7272 0.6743-2.582 1.0449l-1.8359 0.79492-0.5-6.1836c0.26798-0.13757 0.23687-0.36386 0.12109-0.46484-0.21582-0.0011-0.59434 0.087853-0.58789-0.11133l-0.2168-9.2969h-0.050781v-0.30859h-0.001953l0.33203-0.36328-0.035156-0.0625c0.035301-0.015118 0.073439-0.021917 0.14062 0.023438 0.079159 0.071059 0.13669 0.018645 0.19922-0.007813l0.241-0.217c0.04495-0.071429 0.10684-0.105 0.11133-0.26562l-0.076172-0.25195c-0.10106-0.09524-0.16965-0.086946-0.23633-0.070312l-0.36133 0.30273c-0.07033 0.083531-0.060742 0.14177-0.044922 0.19922l-0.099609 0.058594-0.035156-0.060547h-0.20312v-1.816h0.146v0.11133c0.05393 0.015118 0.1088 0.037799 0.1543 0v-0.9549c-0.05745-0.041949-0.10528-0.015118-0.1543 0v0.1113h-0.14648v-1.8906h0.009766v-1.2246h-0.009766v-0.76172c-0.20677-0.048756-0.38521-0.1183-0.80664 0v0.097656c-0.034054-0.00231-0.069417-0.004033-0.10352-0.0078125v-0.90625c-0.1236-0.054-0.2368-0.0702-0.3436-0.0646zm13.963 0.5195c0.89383-0.0030642 1.3816 0.10914 2.4062 0.38867 1.1776 0.42819 1.895 0.95036 2.6523 1.4648 0.55052 0.49946 1.1065 0.9961 1.4746 1.6172 0.54489 0.89502 0.90085 1.6262 1.168 2.627 0.11117 0.39051 0.15172 0.83668 0.21484 1.2656l-6.2637-0.001953-3.3926-0.005859h-6.2637c0.063124-0.42894 0.10563-0.87512 0.2168-1.2656 0.17844-0.98342 0.64036-1.919 1.1641-2.6191 0.57364-0.65724 1.1488-1.3085 1.7734-1.8535 0.74339-0.50024 1.4474-1.0694 2.5938-1.3008 0.85167-0.25883 1.6812-0.30541 2.2559-0.31641zm-0.039062 0.74414c-0.023786 0.00096265-0.1336 0.17782-0.24414 0.39844-0.11084 0.22144-0.21738 0.41043-0.23438 0.42188-0.016981 0.010885-0.193 0.041694-0.39453 0.070312-0.49366 0.070114-0.51953 0.077378-0.51953 0.14062 0 0.030236 0.14543 0.19444 0.32422 0.36328l0.10352 0.097656h0.001953l0.22 0.209-0.077 0.4434c-0.042526 0.24342-0.066707 0.46852-0.054688 0.5 0.004579 0.011452 0.010188 0.021245 0.023438 0.023438h0.003906c0.043487 0.0043087 0.14553-0.045273 0.41797-0.1875l0.42578-0.2207 0.41406 0.21875c0.31965 0.17171 0.42074 0.21036 0.44727 0.17773 0.011876-0.014891 0.014708-0.061357 0.007813-0.14062-0.006774-0.07861-0.022987-0.1896-0.048828-0.33984v-0.0019531l-0.076172-0.4375 0.248-0.252 0.091797-0.09375c0.26-0.2649 0.329-0.3543 0.299-0.3847-0.03-0.03-0.729-0.1583-0.895-0.164-0.014005-0.00048642-0.11889-0.18812-0.23438-0.41992-0.11548-0.23174-0.22857-0.42188-0.25195-0.42188zm-13.58 0.32812h0.10352v0.046875h-0.1043zm-1.5273 0.42578c0.0026-0.000082394 0.0052114-0.000082394 0.0078125 0 0.051729-0.000059339 0.098547 0.032164 0.11914 0.082031h0.4509v0.0724h-0.4414c-0.0083 0.0681-0.0635 0.1192-0.1289 0.1191-0.0715-0.0005-0.1292-0.0616-0.129-0.1367-0.0003-0.072 0.0527-0.1319 0.1211-0.1367zm1.5273 0.84766h0.10352v5.0532c-0.0349 0-0.0703-0.003-0.1043-0.002zm11.83 1.1641c-0.007784 0-0.010982 0.22251-0.005859 0.49609l0.009766 0.49609 0.85938 0.49414 0.001953 0.001953c0.47168 0.27141 0.86296 0.49564 0.86914 0.49805 0.006199 0.001774 0.4041-0.22113 0.88477-0.49414l0.875-0.49609v-0.5019c1e-8 -0.27533-0.011454-0.49296-0.025391-0.48438-0.68365 0.39409-1.0504 0.60035-1.3066 0.73828-0.16261 0.087284-0.31039 0.16656-0.37305 0.18945-0.053804 0.020032-0.082818 0.020298-0.10156 0.011719-0.042314-0.019276-0.43577-0.24064-0.875-0.49219-0.43923-0.25149-0.80472-0.45703-0.8125-0.45703zm0.011719 1.4609c-0.013878-0.008013-0.023762 0.2077-0.023438 0.48242v0.5l0.16992 0.095703 0.14648 0.085938 0.55273 0.31641c0.47648 0.27338 0.88248 0.494 0.90234 0.48828 0.02083-0.005367 0.41839-0.228 0.88477-0.49414l0.85156-0.48242v-0.48633c0-0.26668-0.011618-0.48438-0.023438-0.48438-0.01176 0-0.39677 0.2131-0.85547 0.47266-0.45794 0.25947-0.85161 0.47266-0.87305 0.47266-0.02996 0-0.7954-0.4267-1.7324-0.9668zm-10.137 1.5098c0.02589 0.06274 0.040113 0.12772 0.033203 0.19727-0.07462 0.12359-0.17215 0.15494-0.25781 0.23242-0.030648-0.04687-0.064826-0.08847-0.072266-0.17578 0.08822-0.10998 0.19684-0.1734 0.29688-0.25391zm4.8945 1.75v0.004h-1.2422c-0.03345 0.88398-0.048127 1.8159-0.041016 2.8203 0.009245 0.57266 0.032388 1.9373 1.291 2.123v1.244c0 2.0844 0.5155 4.1544 1.9922 5.084 2.09 1.3157 3.1271 2.1809 4.9668 2.2383 1.2599 0.00378 2.871-1.135 4.6094-2.2227 1.5631-0.97807 2.3613-3.0259 2.3613-5.0996-0.002677-0.38998-0.008327-0.77994-0.011719-1.1699 1.3594 0.13693 1.1332-1.3482 1.2422-2.1973 0.004362-1.0243-0.014941-1.9389-0.044922-2.8203h-1.2324v-0.003906h-0.51562l0.042969 5.8867c0 1.8753-0.63337 4.0318-2.0469 4.916-1.572 0.98366-3.2259 2.1971-4.3652 2.1934-1.6637-0.047622-2.9459-1.0229-4.8359-2.2129-1.3354-0.84057-1.665-2.9881-1.6602-4.873 0.004926-1.9701 0.011719-3.9401 0.011719-5.9102zm3.9629 2.2559c-0.43898 0.00011339-0.79482 0.356-0.79492 0.79492 0.00009828 0.43895 0.35596 0.79481 0.79492 0.79492 0.43898-0.00011339 0.79482-0.35604 0.79492-0.79492-0.00009828-0.43899-0.35596-0.79481-0.79492-0.79492zm5.9688 0c-0.43898 0.00011339-0.79483 0.356-0.79492 0.79492 0.0000945 0.43895 0.35592 0.79481 0.79492 0.79492 0.43898-0.00011339 0.79482-0.35604 0.79492-0.79492-0.00009828-0.43899-0.35596-0.79481-0.79492-0.79492zm-3.036 3.669c-0.37814 0.00378-0.67004 0.070579-0.66602 0.14844 0.001999 0.080882 0.32239 0.14686 0.7168 0.14648 0.39441 0.00003759 0.71477-0.065602 0.7168-0.14648 0.003201-0.082016-0.31865-0.14844-0.7168-0.14844-0.017008-0.00011339-0.034-0.00011339-0.050781 0zm2.9551 2.2617c-0.00007561 0.00041575-0.011341 0.001424-0.011719 0.001953 0.00011717 0.00037775 0.011719-0.00041575 0.011719 0zm-0.011719 0.001953c-0.015874-0.053669-1.2268 0.071172-2.7285 0.2832-0.064441 0.007559-0.12896 0.019785-0.19336 0.027344-1.4369 0.2075-2.5416 0.40995-2.5215 0.46094 0.026079 0.052158 1.2485-0.077409 2.7422-0.28906 1.4821-0.21014 2.6733-0.42369 2.7012-0.48242zm4.0508 6.1465s0.90056 0.35421 1.4629 0.58203c0.24854 0.10069 0.31641 0.12891 0.31641 0.12891l0.51758 0.22461 2.6523 1.1484 0.50977 0.2207 2.6328 1.0254c1.2836 0.41857 2.3331 1.0986 2.2559 3.043l0.003906 6.6602h-34.545l0.0078-6.631v-0.32c0.1998-1.066 0.3434-2.147 2.2051-2.747l2.3745-0.904 0.514-0.221 2.652-1.138 0.497-0.213v-0.004c0 0.003906 1.7656-0.72656 1.7656-0.72656 0.29924-0.1146 0.28207-0.12207 0.29688-0.10938 0.65299 0.55982 3.3133 2.9164 7.0469 2.7539 2.9093-0.12663 4.8252-1.3 6.834-2.7734zm-14.295 6.88l-1.7266 4.6406h1.0156l0.31836-0.95703h1.6777l0.32227 0.95703h1.0156l-1.7363-4.6406zm3.0625 0v4.6406h0.95703v-1.699h0.761l0.87109 1.6992h1.0254v-0.044922l-1.0039-1.8965c0.27837-0.12537 0.4851-0.29353 0.62109-0.50391 0.13812-0.2125 0.20703-0.47635 0.20703-0.79297 0-0.44624-0.14782-0.79274-0.44531-1.0371-0.2975-0.24437-0.72129-0.36523-1.2695-0.36523zm4.1699 0v4.6406h0.95703v-1.27l-0.096-2.185 1.248 3.455h0.658l1.252-3.459-0.095703 2.1895v1.2695h0.95898v-4.6406h-1.256l-1.185 3.365-1.192-3.366zm5.2285 0 1.5234 2.957v1.6836h0.9707v-1.6836l1.5234-2.957h-1.044l-0.965 2.09-0.961-2.09zm-8.4414 0.77344h0.76758c0.25712 0 0.44706 0.06408 0.57031 0.18945 0.12537 0.12537 0.18945 0.29675 0.18945 0.51562 0 0.21462-0.065518 0.38456-0.19727 0.50781-0.13175 0.12112-0.31847 0.18164-0.55859 0.18164h-0.77148zm-3.5762 0.39844 0.58398 1.7383h-1.161z" fill-rule="evenodd" transform="matrix(.26458 0 0 .26458 0 284.3)"/>
 </g>
</svg>

<svg width="48" height="48" viewBox="0 0 48 48" fill="none" xmlns="http://www.w3.org/2000/svg">
<path fill-rule="evenodd" clip-rule="evenodd" d="M23.5017 4.93164C20.3644 4.93535 17.4852 6.66972 16.0155 9.44138C15.7765 9.94853 15.5644 10.4825 15.367 11.0312C15.1464 11.7772 15.0294 12.55 15.0194 13.328H31.9812C31.9712 12.55 31.8532 11.7771 31.6322 11.0311C31.4402 10.5011 31.2562 9.97148 30.9832 9.44148C29.5142 6.67112 26.6372 4.93694 23.5013 4.93174L23.5017 4.93164ZM9.58583 4.93364C9.47913 4.93914 9.37853 4.96654 9.27924 4.99804V5.916C9.19609 5.92734 9.11334 5.94246 9.02924 5.96287V6.52928H9.27924V6.57615H8.50972C8.14892 6.65885 8.02192 6.89539 8.02925 7.13864V7.14255C8.04229 7.4562 8.27577 7.7788 8.50972 7.79879H9.27924V12.9081C9.18314 12.9231 9.08794 12.9381 8.99214 12.9531L8.99019 13.2969C8.95833 13.2742 8.93202 13.2855 8.9062 13.2969L8.9082 23.2287L8.81251 30.6777C8.62631 30.7457 8.45141 30.8177 8.25981 30.8847C5.71474 31.6336 5.71484 33.7516 5.71484 34.9036V41.5656H41.2864V34.9036C41.2864 33.7511 41.2866 31.6354 38.7415 30.8842C37.5306 30.4634 36.4335 30.0037 35.3686 29.5424L32.7166 28.3924C31.9216 28.0514 31.1286 27.7234 30.3116 27.4334C28.7465 28.9036 25.594 30.2449 23.509 30.2772C20.9462 30.2743 18.4883 29.2584 16.6712 27.451L16.5618 27.4803C15.6865 27.7959 14.8346 28.1546 13.9799 28.5252L12.144 29.3201L11.644 23.1366C11.912 22.999 11.8809 22.7727 11.7651 22.6717C11.5493 22.6706 11.1707 22.7596 11.1772 22.5604L10.9604 13.2636H10.9096V12.955H10.9077L11.2397 12.5918L11.2045 12.5293C11.2398 12.5141 11.278 12.5073 11.3452 12.5527C11.4243 12.6238 11.4818 12.5713 11.5444 12.5449L11.7854 12.3279C11.8303 12.2565 11.8922 12.2229 11.8967 12.0623L11.8205 11.8103C11.7195 11.7151 11.6509 11.7234 11.5842 11.74L11.2229 12.0427C11.1525 12.1263 11.1621 12.1845 11.178 12.242L11.0783 12.3005L11.0432 12.24H10.8401V10.424H10.9861V10.5354C11.04 10.5505 11.0949 10.5732 11.1404 10.5354V9.58047C11.0829 9.53852 11.0351 9.56535 10.9861 9.58047V9.69176H10.8396V7.80119H10.8494V6.5766H10.8396V5.81489C10.6328 5.76614 10.4544 5.69659 10.033 5.81489V5.91255C9.99891 5.91024 9.96354 5.90851 9.92944 5.90473V4.9985C9.80584 4.9445 9.69264 4.9283 9.58585 4.9339L9.58583 4.93364ZM23.5487 5.45313C24.4425 5.45007 24.9302 5.56227 25.9548 5.8418C27.1324 6.26998 27.8498 6.79215 28.6071 7.30658C29.1576 7.80603 29.7136 8.30267 30.0817 8.92376C30.6266 9.81877 30.9825 10.5499 31.2497 11.5507C31.3608 11.9412 31.4014 12.3874 31.4645 12.8163L25.2009 12.8144L21.8083 12.8085H15.5447C15.6078 12.3796 15.6503 11.9334 15.7615 11.5429C15.9399 10.5595 16.4018 9.62394 16.9256 8.92385C17.4992 8.26662 18.0744 7.61536 18.699 7.07037C19.4423 6.57014 20.1463 6.00099 21.2927 5.76959C22.1444 5.51076 22.9739 5.46418 23.5486 5.45318L23.5487 5.45313ZM23.5096 6.19726C23.4858 6.19823 23.376 6.37508 23.2655 6.5957C23.1546 6.81714 23.0481 7.00612 23.0311 7.01757C23.0141 7.02846 22.8381 7.05927 22.6366 7.08789C22.1429 7.158 22.117 7.16526 22.117 7.2285C22.117 7.25874 22.2625 7.42294 22.4413 7.59178L22.5448 7.68943H22.5467L22.7667 7.89843L22.6897 8.34183C22.6472 8.58524 22.623 8.81034 22.635 8.84182C22.6396 8.85327 22.6452 8.86306 22.6585 8.86526H22.6624C22.7059 8.86957 22.8079 8.81998 23.0803 8.67776L23.5061 8.45706L23.9202 8.67581C24.2398 8.84752 24.3409 8.88617 24.3674 8.85354C24.3793 8.83865 24.3821 8.79218 24.3752 8.71292C24.3685 8.63431 24.3523 8.52332 24.3264 8.37308V8.37113L24.2503 7.93364L24.4982 7.68164L24.59 7.58789C24.85 7.32299 24.919 7.23359 24.889 7.2032C24.859 7.1732 24.16 7.0449 23.9941 7.0392C23.98 7.03871 23.8752 6.85108 23.7597 6.61928C23.6442 6.38755 23.5311 6.19741 23.5077 6.19741L23.5096 6.19726ZM9.92977 6.52538H10.0333V6.57226H9.92899L9.92977 6.52538ZM8.40249 6.95116C8.40509 6.95107 8.4077 6.95107 8.4103 6.95116C8.46203 6.9511 8.50884 6.98332 8.52944 7.03319H8.98033V7.10558H8.53894C8.53064 7.17368 8.47544 7.22478 8.41004 7.22468C8.33854 7.22418 8.28084 7.16308 8.28104 7.08798C8.28074 7.01599 8.33374 6.95609 8.40214 6.95129L8.40249 6.95116ZM9.92977 7.7988H10.0333V12.8519C9.99839 12.8519 9.96299 12.8489 9.92899 12.8499L9.92977 7.7988ZM21.7596 8.96289C21.7518 8.96289 21.7486 9.1854 21.7538 9.45897L21.7635 9.95506L22.6229 10.4492L22.6248 10.4511C23.0965 10.7226 23.4878 10.9468 23.494 10.9492C23.5002 10.951 23.8981 10.7281 24.3787 10.4551L25.2537 9.95897V9.45708C25.2537 9.18175 25.2423 8.96412 25.2283 8.9727C24.5447 9.36679 24.1779 9.57305 23.9218 9.71097C23.7591 9.79826 23.6114 9.87753 23.5487 9.90042C23.4949 9.92045 23.4659 9.92072 23.4471 9.91214C23.4048 9.89286 23.0114 9.6715 22.5722 9.41996C22.1329 9.16847 21.7674 8.96293 21.7597 8.96293L21.7596 8.96289ZM21.7713 10.4238C21.7575 10.4158 21.7476 10.6315 21.7479 10.9062V11.4062L21.9178 11.5019L22.0643 11.5878L22.617 11.9042C23.0935 12.1776 23.4995 12.3982 23.5193 12.3925C23.5402 12.3871 23.9377 12.1645 24.4041 11.8984L25.2557 11.416V10.9296C25.2557 10.6629 25.244 10.4453 25.2322 10.4453C25.2205 10.4453 24.8355 10.6584 24.3768 10.9179C23.9188 11.1774 23.5252 11.3906 23.5037 11.3906C23.4738 11.3906 22.7083 10.9639 21.7713 10.4238ZM11.6345 11.9336C11.6604 11.9963 11.6746 12.0613 11.6677 12.1308C11.593 12.2544 11.4955 12.2858 11.4099 12.3632C11.3792 12.3164 11.345 12.2748 11.3376 12.1875C11.4258 12.0775 11.5344 12.0141 11.6345 11.9336ZM16.5289 13.6835V13.6875H15.2867C15.2533 14.5715 15.2386 15.5034 15.2457 16.5078C15.2549 17.0804 15.2781 18.4451 16.5367 18.6308V19.8748C16.5367 21.9591 17.0522 24.0291 18.5289 24.9587C20.6188 26.2744 21.6559 27.1396 23.4956 27.197C24.7555 27.2007 26.3666 26.062 28.1049 24.9743C29.668 23.9962 30.4662 21.9484 30.4662 19.8748C30.4635 19.4848 30.4579 19.0948 30.4545 18.7049C31.8139 18.8418 31.5877 17.3567 31.6967 16.5076C31.701 15.4833 31.6817 14.5687 31.6518 13.6873H30.4194V13.6834H29.9038L29.9467 19.5701C29.9467 21.4453 29.3134 23.6018 27.8999 24.486C26.3279 25.4696 24.674 26.6831 23.5347 26.6794C21.871 26.6317 20.5888 25.6565 18.6989 24.4665C17.3635 23.6259 17.0339 21.4784 17.0387 19.5936C17.0436 17.6235 17.0504 15.6535 17.0504 13.6834L16.5289 13.6835ZM20.4918 15.9394C20.0528 15.9395 19.6969 16.2954 19.6968 16.7343C19.6969 17.1733 20.0528 17.5291 20.4918 17.5292C20.9307 17.5291 21.2866 17.1732 21.2867 16.7343C21.2866 16.2953 20.9307 15.9395 20.4918 15.9394ZM26.4605 15.9394C26.0215 15.9395 25.6657 16.2954 25.6656 16.7343C25.6657 17.1733 26.0215 17.5291 26.4605 17.5292C26.8995 17.5291 27.2553 17.1732 27.2554 16.7343C27.2553 16.2953 26.8994 15.9395 26.4605 15.9394ZM23.4245 19.6084C23.0464 19.6121 22.7545 19.6789 22.7585 19.7568C22.7605 19.8377 23.0809 19.9037 23.4753 19.9033C23.8697 19.9033 24.1901 19.8377 24.1921 19.7568C24.1953 19.6748 23.8734 19.6084 23.4753 19.6084C23.4583 19.6082 23.4413 19.6082 23.4245 19.6084ZM26.3796 21.87C26.3795 21.8704 26.3682 21.8715 26.3679 21.872C26.368 21.8724 26.3796 21.8716 26.3796 21.872V21.87ZM26.3679 21.872C26.352 21.8183 25.1411 21.9432 23.6394 22.1552C23.575 22.1627 23.5104 22.175 23.446 22.1825C22.0092 22.39 20.9045 22.5925 20.9246 22.6435C20.9506 22.6956 22.1731 22.566 23.6667 22.3544C25.1488 22.1443 26.34 21.9307 26.3679 21.872ZM30.4186 28.0184C30.4186 28.0184 31.3192 28.3726 31.8815 28.6004C32.13 28.7011 32.1979 28.7293 32.1979 28.7293L32.7155 28.9539L35.3677 30.1023L35.8775 30.323L38.5103 31.3484C39.7939 31.767 40.8433 32.447 40.7661 34.3914L40.77 41.0515H6.22548L6.23328 34.4206V34.1006C6.43308 33.0346 6.57667 31.9536 8.43835 31.3536L10.8128 30.4496L11.3268 30.2286L13.9788 29.0906L14.4758 28.8776V28.8736C14.4758 28.8776 16.2414 28.1471 16.2414 28.1471C16.5406 28.0325 16.5234 28.025 16.5382 28.0377C17.1912 28.5975 19.8515 30.9541 23.585 30.7916C26.4943 30.665 28.4102 29.4916 30.419 28.0182L30.4186 28.0184ZM16.1238 34.8983L14.3972 39.5389H15.4128L15.7312 38.5818H17.4088L17.7311 39.5389H18.7467L17.0104 34.8983H16.1238ZM19.1863 34.8983V39.5389H20.1433V37.8399H20.9043L21.7753 39.5391H22.8007V39.4941L21.7968 37.5977C22.0752 37.4723 22.2819 37.3041 22.4179 37.0938C22.556 36.8813 22.6249 36.6174 22.6249 36.3008C22.6249 35.8546 22.4771 35.5081 22.1796 35.2637C21.8821 35.0193 21.4584 34.8985 20.9102 34.8985L19.1863 34.8983ZM23.3561 34.8983V39.5389H24.3131V38.2689L24.2171 36.0839L25.4651 39.5389H26.1231L27.3751 36.0799L27.2794 38.2694V39.5389H28.2383V34.8983H26.9824L25.7974 38.2633L24.6054 34.8973L23.3561 34.8983ZM28.5845 34.8983L30.1079 37.8553V39.5389H31.0786V37.8553L32.602 34.8983H31.558L30.593 36.9883L29.632 34.8983H28.5845ZM20.1432 35.6717H20.9108C21.1679 35.6717 21.3579 35.7358 21.4811 35.8612C21.6065 35.9866 21.6706 36.1579 21.6706 36.3768C21.6706 36.5914 21.605 36.7614 21.4733 36.8846C21.3415 37.0057 21.1548 37.0663 20.9147 37.0663H20.1432V35.6717ZM16.5671 36.0702L17.1511 37.8085H15.9901L16.5671 36.0702Z" fill="#333333"/>
</svg>
